X:1
T:Pax Dei (Dykes), 10.10.10.10
T:John Bacchus Dykes, 1868
T:Pax Dei (Dykes), 10.10.10.10
T:Public Domain
C:John Bacchus Dykes, 1868
Z:Public Domain
%%score ( 1 2 ) ( 3 4 )
L:1/8
M:4/4
K:D
V:1 treble 
V:2 treble 
V:3 bass 
V:4 bass 
V:1
 [A,D]4 [DF]2 [DA]2 | [DA]3 [DG] [DF]2 D2 | (D2 C2) (E2 D2) | (D4 C4) | [A,D]4 [DF]2 [EA]2 | %5
 [Fd]2 [^Ec]2 [CA]2 [FB]2 | (E2 A2) z2 B2 | [EA]8 | (F2 E2) [^DB]2 [DF]2 | (E2 D2) (A2 E2) | %10
 [DF]2 [EA]2 [Fd]2 (ED) | [Ec]8 | [Ec]4 [Dd]2 D2 | D2 [DE]2 [DF]2 (GE) | (A,2 B,2 z2) C2 x2 | %15
 [A,D]8 |] %16
V:2
 x8 | x6 D2 | F4 B,4 | A,8 | x8 | x8 | c4 ^G4 | x8 | A4 x4 | G4 C4 | x6 d2 | x8 | x8 | x6 B,2 | %14
 D6 A,4 | x8 |] %16
V:3
 [D,F,]4 [D,A,]2 [D,=C]2 | [D,B,]3 [D,B,] [D,A,]2 [B,,B,]2 | [F,,A,]4 (G,2 F,2) | (F,4 E,2 G,2) | %4
 [D,F,]4 [D,A,]2 [C,A,]2 | [B,,A,]2 [C,^G,]2 [F,A,]2 [D,A,]2 | (A,2 B,C) [E,D]4 | (A,4 G,4) | %8
 (C2 =C2) [B,,B,]2 [F,A,]2 | (B,2 _B,2) ([A,,A,]2 [E,G,]2) | [D,A,]2 [C,A,]2 [B,,A,]2 [B,,^G,]2 | %11
 [A,,A,]8 | A,2 z B, [F,A,]2 [F,A,]2 | [G,B,]2 [G,B,]2 [F,A,]2 (E,G,,) | (F,2 G,2 F,2) (E,G,) x2 | %15
 [D,F,]8 |] %16
V:4
 x8 | x8 | x4 G,,4 | A,,8 | x8 | x8 | E,4 x4 | C8 | F,4 x4 | E,4 x4 | x8 | x8 | C3 G,2 x3 | %13
 x6 G,2 | A,,6 A,,2 x2 | x8 |] %16

